;FLAVOR:Marlin
;TIME:1557
;Filament used: 0.472612m
;Layer height: 0.2
;MINX:85.502
;MINY:82
;MINZ:0.2
;MAXX:134.498
;MAXY:113.011
;MAXZ:30
;TARGET_MACHINE.NAME:Creality Ender-3
;Generated with Cura_SteamEngine 5.11.0
M140 S60
M105
M190 S60
M104 S225
M105
M109 S225
; Ender 3 Custom Start G-code
G92 E0 ; Reset Extruder
G28 ; Home all axes
G1 Z2.0 F3000 ; Move Z Axis up little to prevent scratching of Heat Bed
G1 X0.1 Y20 Z0.3 F5000.0 ; Move to start position
G1 X0.1 Y200.0 Z0.3 F1500.0 E15 ; Draw the first line
G1 X0.4 Y200.0 Z0.3 F5000.0 ; Move to side a little
G1 X0.4 Y20 Z0.3 F1500.0 E30 ; Draw the second line
G92 E0 ; Reset Extruder
G1 Z2.0 F3000 ; Move Z Axis up little to prevent scratching of Heat Bed
G1 X5 Y20 Z0.3 F5000.0 ; Move over to prevent blob squish
M82 ;absolute extrusion mode
G92 E0
G92 E0
;LAYER_COUNT:150
;LAYER:0
M107
G0 F6000 X89.485 Y86.527 Z0.2
;TYPE:SKIRT
G1 F1200 X89.845 Y86.16 E0.0171
G1 X90.39 Y85.653 E0.04186
G1 X90.839 Y85.267 E0.06155
G1 X91.373 Y84.854 E0.084
G1 X92.054 Y84.384 E0.11152
G1 X92.497 Y84.104 E0.12895
G1 X93.063 Y83.776 E0.15071
G1 X93.648 Y83.47 E0.17267
G1 X94.45 Y83.11 E0.20191
G1 X94.911 Y82.932 E0.21835
G1 X95.484 Y82.727 E0.23859
G1 X96.633 Y82.407 E0.27826
G1 X97.387 Y82.247 E0.30389
G1 X98.088 Y82.133 E0.32752
G1 X98.843 Y82.05 E0.35278
G1 X99.617 Y82.014 E0.37855
G1 X100.707 Y82 E0.41481
G1 X119.657 Y82.005 E1.04509
G1 X120.778 Y82.03 E1.08238
G1 X121.265 Y82.066 E1.09862
G1 X122.074 Y82.158 E1.1257
G1 X122.521 Y82.23 E1.14076
G1 X123.054 Y82.334 E1.15882
G1 X123.784 Y82.507 E1.18378
G1 X124.143 Y82.607 E1.19617
G1 X124.631 Y82.765 E1.21323
G1 X125.63 Y83.142 E1.24874
G1 X126.376 Y83.479 E1.27597
G1 X127.029 Y83.822 E1.3005
G1 X127.56 Y84.132 E1.32095
G1 X128.468 Y84.745 E1.35739
G1 X129.158 Y85.27 E1.38623
G1 X129.684 Y85.71 E1.40904
G1 X130.267 Y86.266 E1.43583
G1 X130.631 Y86.652 E1.45348
G1 X130.985 Y87.05 E1.4712
G1 X131.403 Y87.549 E1.49285
G1 X131.941 Y88.284 E1.52314
G1 X132.369 Y88.948 E1.54942
G1 X132.549 Y89.25 E1.56111
G1 X132.966 Y90.016 E1.59012
G1 X133.124 Y90.347 E1.60232
G1 X133.35 Y90.862 E1.62102
G1 X133.604 Y91.507 E1.64408
G1 X133.732 Y91.868 E1.65682
G1 X133.938 Y92.533 E1.67997
G1 X134.08 Y93.079 E1.69874
G1 X134.276 Y94.011 E1.73041
G1 X134.352 Y94.491 E1.74658
G1 X134.418 Y95.023 E1.76441
G1 X134.47 Y95.594 E1.78348
G1 X134.498 Y96.54 E1.81496
G1 X134.484 Y97.091 E1.83329
G1 X134.412 Y98.022 E1.86435
G1 X134.351 Y98.527 E1.88126
G1 X134.287 Y98.941 E1.8952
G1 X134.212 Y99.332 E1.90844
G1 X134.074 Y99.963 E1.92992
G1 X133.976 Y100.349 E1.94317
G1 X133.556 Y101.606 E1.98725
G1 X133.336 Y102.153 E2.00686
G1 X133.109 Y102.674 E2.02576
G1 X132.68 Y103.513 E2.0571
G1 X132.172 Y104.374 E2.09035
G1 X131.644 Y105.134 E2.12113
G1 X131.179 Y105.732 E2.14633
G1 X130.82 Y106.15 E2.16465
G1 X130.369 Y106.626 E2.18646
G1 X129.871 Y107.116 E2.2097
G1 X128.805 Y108.007 E2.25591
G1 X128.178 Y108.46 E2.28164
G1 X127.664 Y108.797 E2.30208
G1 X127.051 Y109.16 E2.32577
G1 X126.155 Y109.629 E2.35941
G1 X125.272 Y110.005 E2.39133
G1 X124.684 Y110.219 E2.41214
G1 X123.887 Y110.466 E2.43989
G1 X123.012 Y110.684 E2.46989
G1 X122.481 Y110.784 E2.48786
G1 X121.767 Y110.888 E2.51186
G1 X121.077 Y110.953 E2.53491
G1 X120.474 Y110.98 E2.55498
G1 X118.921 Y111.008 E2.60664
G1 X116.255 Y111.093 E2.69536
G1 X113.767 Y111.243 E2.77826
G1 X111.267 Y111.465 E2.86174
G1 X108.794 Y111.756 E2.94456
G1 X106.291 Y112.123 E3.0287
G1 X102.765 Y112.757 E3.14786
G1 X102.075 Y112.855 E3.17104
G1 X100.76 Y112.984 E3.21498
G1 X99.857 Y113.011 E3.24503
G1 X98.906 Y112.96 E3.27671
G1 X98.312 Y112.902 E3.29656
G1 X97.626 Y112.818 E3.31954
G1 X96.939 Y112.704 E3.34271
G1 X95.944 Y112.458 E3.3768
G1 X95.318 Y112.254 E3.39869
G1 X94.617 Y111.986 E3.42366
G1 X93.7 Y111.574 E3.45709
G1 X92.652 Y110.972 E3.49729
G1 X92.079 Y110.594 E3.52012
G1 X91.326 Y110.03 E3.55141
G1 X90.523 Y109.304 E3.58742
G1 X90.203 Y108.979 E3.60259
G1 X89.803 Y108.546 E3.62219
G1 X89.223 Y107.853 E3.65225
G1 X88.494 Y106.779 E3.69542
G1 X88.204 Y106.291 E3.7143
G1 X87.737 Y105.415 E3.74732
G1 X87.362 Y104.533 E3.7792
G1 X87.187 Y104.025 E3.79707
G1 X86.089 Y100.58 E3.91733
G1 X85.939 Y100.031 E3.93626
G1 X85.834 Y99.57 E3.95198
G1 X85.748 Y99.116 E3.96735
G1 X85.626 Y98.341 E3.99345
G1 X85.591 Y98.061 E4.00283
G1 X85.524 Y97.265 E4.0294
G1 X85.502 Y96.525 E4.05402
G1 X85.516 Y95.952 E4.07309
G1 X85.589 Y94.926 E4.1073
G1 X85.676 Y94.269 E4.12934
G1 X85.767 Y93.752 E4.1468
G1 X85.92 Y93.055 E4.17054
G1 X86.101 Y92.376 E4.19391
G1 X86.278 Y91.814 E4.21351
G1 X86.51 Y91.199 E4.23537
G1 X86.702 Y90.734 E4.2521
G1 X86.927 Y90.236 E4.27028
G1 X87.312 Y89.483 E4.2984
G1 X87.574 Y89.038 E4.31558
G1 X87.981 Y88.406 E4.34058
G1 X88.195 Y88.095 E4.35314
G1 X88.733 Y87.379 E4.38293
G1 X89.175 Y86.862 E4.40555
G1 X89.485 Y86.527 E4.42073
G0 F6000 X89.77 Y86.807
G1 F1200 X90.118 Y86.453 E4.43724
G1 X90.651 Y85.956 E4.46148
G1 X91.084 Y85.583 E4.48049
G1 X91.6 Y85.183 E4.5022
G1 X92.267 Y84.722 E4.52917
G1 X92.698 Y84.45 E4.54612
G1 X93.249 Y84.13 E4.56731
G1 X93.812 Y83.835 E4.58845
G1 X94.595 Y83.483 E4.61701
G1 X95.046 Y83.308 E4.6331
G1 X95.592 Y83.112 E4.65239
G1 X96.716 Y82.798 E4.69121
G1 X97.451 Y82.642 E4.7162
G1 X98.132 Y82.531 E4.73915
G1 X98.862 Y82.45 E4.76358
G1 X99.622 Y82.414 E4.78888
G1 X100.707 Y82.4 E4.82497
G1 X119.648 Y82.405 E5.45495
G1 X120.749 Y82.429 E5.49158
G1 X121.22 Y82.463 E5.50729
G1 X122.01 Y82.553 E5.53373
G1 X122.444 Y82.623 E5.54835
G1 X122.977 Y82.727 E5.56642
G1 X123.676 Y82.892 E5.5903
G1 X124.02 Y82.988 E5.60218
G1 X124.508 Y83.146 E5.61924
G1 X125.465 Y83.507 E5.65326
G1 X126.211 Y83.844 E5.68049
G1 X126.828 Y84.168 E5.70367
G1 X127.336 Y84.464 E5.72322
G1 X128.244 Y85.077 E5.75966
G1 X128.901 Y85.577 E5.78712
G1 X129.427 Y86.017 E5.80993
G1 X129.976 Y86.541 E5.83517
G1 X130.332 Y86.918 E5.85242
G1 X130.678 Y87.307 E5.86973
G1 X131.096 Y87.806 E5.89138
G1 X131.618 Y88.52 E5.9208
G1 X132.025 Y89.153 E5.94583
G1 X132.205 Y89.455 E5.95753
G1 X132.605 Y90.189 E5.98533
G1 X132.758 Y90.508 E5.9971
G1 X132.978 Y91.008 E6.01526
G1 X133.227 Y91.641 E6.03789
G1 X133.35 Y91.987 E6.0501
G1 X133.551 Y92.634 E6.07264
G1 X133.693 Y93.18 E6.0914
G1 X133.881 Y94.073 E6.12175
G1 X133.955 Y94.541 E6.13751
G1 X134.02 Y95.059 E6.15488
G1 X134.07 Y95.606 E6.17314
G1 X134.098 Y96.53 E6.20389
G1 X134.085 Y97.06 E6.22152
G1 X134.015 Y97.974 E6.25201
G1 X133.956 Y98.466 E6.26849
G1 X133.894 Y98.866 E6.28196
G1 X133.821 Y99.247 E6.29486
G1 X133.686 Y99.865 E6.3159
G1 X133.588 Y100.251 E6.32914
G1 X133.185 Y101.457 E6.37144
G1 X132.969 Y101.994 E6.39069
G1 X132.753 Y102.492 E6.40874
G1 X132.335 Y103.31 E6.4393
G1 X131.827 Y104.171 E6.47255
G1 X131.328 Y104.888 E6.5016
G1 X130.863 Y105.486 E6.5268
G1 X130.529 Y105.875 E6.54385
G1 X130.088 Y106.341 E6.56519
G1 X129.59 Y106.831 E6.58842
G1 X128.57 Y107.683 E6.63263
G1 X127.958 Y108.126 E6.65776
G1 X127.46 Y108.453 E6.67757
G1 X126.865 Y108.806 E6.70058
G1 X125.998 Y109.261 E6.73315
G1 X125.135 Y109.629 E6.76435
G1 X124.565 Y109.837 E6.78453
G1 X123.79 Y110.078 E6.81153
G1 X122.938 Y110.291 E6.84074
G1 X122.423 Y110.388 E6.85817
G1 X121.709 Y110.492 E6.88217
G1 X121.059 Y110.553 E6.90388
G1 X120.467 Y110.58 E6.92359
G1 X118.908 Y110.608 E6.97545
G1 X116.242 Y110.693 E7.06417
G1 X113.743 Y110.844 E7.14744
G1 X111.22 Y111.068 E7.23168
G1 X108.736 Y111.36 E7.31487
G1 X106.223 Y111.728 E7.39934
G1 X102.709 Y112.361 E7.5181
G1 X102.032 Y112.457 E7.54084
G1 X101.296 Y112.536 E7.56546
G1 X100.748 Y112.584 E7.58376
G1 X99.845 Y112.611 E7.61381
G1 X98.945 Y112.562 E7.64379
G1 X98.361 Y112.505 E7.6633
G1 X97.691 Y112.423 E7.68575
G1 X97.004 Y112.309 E7.70891
G1 X96.068 Y112.078 E7.74098
G1 X95.461 Y111.88 E7.76222
G1 X94.76 Y111.612 E7.78718
G1 X93.899 Y111.227 E7.81855
G1 X92.872 Y110.638 E7.85792
G1 X92.318 Y110.273 E7.87999
G1 X91.594 Y109.733 E7.91003
G1 X90.791 Y109.007 E7.94604
G1 X90.497 Y108.708 E7.95998
G1 X90.11 Y108.289 E7.97895
G1 X89.53 Y107.596 E8.00901
G1 X88.838 Y106.574 E8.05006
G1 X88.557 Y106.102 E8.06833
G1 X88.105 Y105.258 E8.10017
G1 X87.74 Y104.402 E8.13113
G1 X87.568 Y103.904 E8.14865
G1 X86.475 Y100.474 E8.26838
G1 X86.329 Y99.942 E8.28673
G1 X86.227 Y99.495 E8.30198
G1 X86.143 Y99.054 E8.31691
G1 X86.023 Y98.291 E8.3426
G1 X85.99 Y98.027 E8.35145
G1 X85.924 Y97.253 E8.37729
G1 X85.902 Y96.534 E8.40121
G1 X85.915 Y95.98 E8.41964
G1 X85.986 Y94.978 E8.45305
G1 X86.07 Y94.338 E8.47452
G1 X86.158 Y93.838 E8.49141
G1 X86.311 Y93.141 E8.51514
G1 X86.483 Y92.496 E8.53735
G1 X86.66 Y91.934 E8.55694
G1 X86.879 Y91.352 E8.57763
G1 X87.067 Y90.899 E8.59394
G1 X87.292 Y90.401 E8.61211
G1 X87.657 Y89.686 E8.63881
G1 X87.919 Y89.241 E8.65599
G1 X88.311 Y88.632 E8.68008
G1 X88.515 Y88.335 E8.69206
G1 X89.037 Y87.639 E8.721
G1 X89.469 Y87.133 E8.74313
G1 X89.77 Y86.807 E8.75789
G0 F6000 X90.055 Y87.087
G1 F1200 X90.391 Y86.745 E8.77383
G1 X90.912 Y86.259 E8.79753
G1 X91.329 Y85.899 E8.81585
G1 X91.828 Y85.512 E8.83686
G1 X92.481 Y85.06 E8.86327
G1 X92.899 Y84.796 E8.87971
G1 X93.435 Y84.484 E8.90034
G1 X93.976 Y84.2 E8.92066
G1 X94.74 Y83.856 E8.94853
G1 X95.182 Y83.684 E8.96431
G1 X95.7 Y83.497 E8.98262
G1 X96.799 Y83.189 E9.02058
G1 X97.515 Y83.037 E9.04493
G1 X98.177 Y82.929 E9.06724
G1 X98.881 Y82.85 E9.0908
G1 X99.627 Y82.814 E9.11564
G1 X100.707 Y82.8 E9.15157
G1 X119.639 Y82.805 E9.78125
G1 X120.721 Y82.828 E9.81724
G1 X121.175 Y82.86 E9.83238
G1 X121.946 Y82.948 E9.85819
G1 X122.368 Y83.016 E9.87241
G1 X122.885 Y83.116 E9.88992
G1 X123.568 Y83.277 E9.91326
G1 X123.897 Y83.369 E9.92462
G1 X124.385 Y83.527 E9.94168
G1 X125.3 Y83.872 E9.97421
G1 X126.046 Y84.209 E10.00143
G1 X126.627 Y84.514 E10.02326
G1 X127.112 Y84.796 E10.04192
G1 X128.02 Y85.409 E10.07836
G1 X128.645 Y85.884 E10.10447
G1 X129.151 Y86.306 E10.12638
G1 X129.685 Y86.816 E10.15094
G1 X130.041 Y87.193 E10.16819
G1 X130.372 Y87.564 E10.18472
G1 X130.773 Y88.042 E10.20548
G1 X131.295 Y88.756 E10.23489
G1 X131.682 Y89.358 E10.2587
G1 X131.854 Y89.646 E10.26985
G1 X132.244 Y90.362 E10.29697
G1 X132.392 Y90.67 E10.30834
G1 X132.606 Y91.154 E10.32594
G1 X132.85 Y91.776 E10.34816
G1 X132.968 Y92.106 E10.35982
G1 X133.164 Y92.735 E10.38173
G1 X133.306 Y93.281 E10.40049
G1 X133.486 Y94.136 E10.42955
G1 X133.558 Y94.591 E10.44488
G1 X133.622 Y95.096 E10.46181
G1 X133.67 Y95.618 E10.47924
G1 X133.698 Y96.521 E10.50929
G1 X133.686 Y97.03 E10.52622
G1 X133.618 Y97.927 E10.55614
G1 X133.561 Y98.405 E10.57216
G1 X133.501 Y98.791 E10.58515
G1 X133.43 Y99.162 E10.59771
G1 X133.298 Y99.767 E10.61831
G1 X133.2 Y100.153 E10.63155
G1 X132.814 Y101.308 E10.67206
G1 X132.602 Y101.835 E10.69095
G1 X132.397 Y102.31 E10.70816
G1 X131.99 Y103.107 E10.73792
G1 X131.482 Y103.968 E10.77117
G1 X131.012 Y104.643 E10.79853
G1 X130.56 Y105.225 E10.82304
G1 X130.238 Y105.6 E10.83948
G1 X129.807 Y106.056 E10.86035
G1 X129.309 Y106.546 E10.88358
G1 X128.335 Y107.359 E10.92578
G1 X127.738 Y107.792 E10.95031
G1 X127.256 Y108.109 E10.9695
G1 X126.679 Y108.452 E10.99182
G1 X125.841 Y108.893 E11.02332
G1 X124.998 Y109.253 E11.05381
G1 X124.446 Y109.455 E11.07336
G1 X123.693 Y109.69 E11.09959
G1 X122.864 Y109.898 E11.12802
G1 X122.365 Y109.992 E11.14491
G1 X121.651 Y110.096 E11.16891
G1 X121.04 Y110.153 E11.18932
G1 X120.46 Y110.18 E11.20863
G1 X118.895 Y110.208 E11.26069
G1 X116.229 Y110.293 E11.34941
G1 X113.719 Y110.445 E11.43304
G1 X111.173 Y110.671 E11.51806
G1 X108.678 Y110.964 E11.60161
G1 X106.155 Y111.333 E11.68642
G1 X102.653 Y111.965 E11.80478
G1 X101.989 Y112.059 E11.82708
G1 X101.261 Y112.138 E11.85144
G1 X100.736 Y112.184 E11.86897
G1 X99.833 Y112.211 E11.89901
G1 X98.984 Y112.164 E11.9273
G1 X98.41 Y112.108 E11.94648
G1 X97.756 Y112.028 E11.96839
G1 X97.069 Y111.914 E11.99155
G1 X96.192 Y111.698 E12.02159
G1 X95.603 Y111.506 E12.0422
G1 X94.923 Y111.247 E12.0664
G1 X94.098 Y110.88 E12.09643
G1 X93.092 Y110.304 E12.13499
G1 X92.557 Y109.952 E12.15629
G1 X91.833 Y109.412 E12.18633
G1 X91.076 Y108.726 E12.22031
G1 X90.791 Y108.437 E12.23381
G1 X90.417 Y108.032 E12.25214
G1 X89.837 Y107.339 E12.2822
G1 X89.182 Y106.369 E12.32113
G1 X88.901 Y105.897 E12.3394
G1 X88.473 Y105.101 E12.36946
G1 X88.118 Y104.271 E12.39948
G1 X87.949 Y103.783 E12.41666
G1 X86.861 Y100.368 E12.53587
G1 X86.719 Y99.853 E12.55364
G1 X86.62 Y99.42 E12.56841
G1 X86.538 Y98.992 E12.58291
G1 X86.42 Y98.242 E12.60816
G1 X86.389 Y97.993 E12.6165
G1 X86.324 Y97.24 E12.64164
G1 X86.302 Y96.543 E12.66483
G1 X86.314 Y96.008 E12.68263
G1 X86.383 Y95.03 E12.71524
G1 X86.464 Y94.407 E12.73614
G1 X86.549 Y93.924 E12.75245
G1 X86.698 Y93.244 E12.7756
G1 X86.865 Y92.616 E12.79722
G1 X87.042 Y92.054 E12.81681
G1 X87.248 Y91.506 E12.83629
G1 X87.432 Y91.064 E12.85221
G1 X87.657 Y90.566 E12.87039
G1 X88.002 Y89.889 E12.89566
G1 X88.264 Y89.444 E12.91283
G1 X88.641 Y88.858 E12.93601
G1 X88.835 Y88.575 E12.94742
G1 X89.341 Y87.899 E12.97551
G1 X89.763 Y87.404 E12.99714
G1 X90.055 Y87.087 E13.01147
G0 F6000 X98.069 Y100.57
G1 F1200 X98.158 Y100.617 E13.01482
G1 X98.188 Y100.629 E13.0159
G1 X98.842 Y100.85 E13.03886
G1 X98.867 Y100.857 E13.03972
G1 X99.39 Y100.96 E13.05745
G1 X99.415 Y100.963 E13.05829
G1 X99.912 Y100.999 E13.07486
G1 X99.926 Y101 E13.07533
G1 X101.689 Y101 E13.13397
G1 X101.761 Y101.2 E13.14104
G1 X101.506 Y101.406 E13.15194
G1 X101.044 Y101.675 E13.16972
G1 X100.718 Y101.755 E13.18088
G1 X99.95 Y101.824 E13.20653
G1 X99.122 Y101.728 E13.23426
G1 X98.721 Y101.576 E13.24852
G1 X98.411 Y101.367 E13.26095
G1 X98.065 Y100.999 E13.27775
G1 X97.913 Y100.731 E13.288
G1 X98.069 Y100.57 E13.29546
G0 F6000 X99.205 Y101.332
G1 F1200 X99.245 Y101.34 E13.29681
G1 X99.218 Y101.336 E13.29772
G1 X99.205 Y101.332 E13.29817
G0 F6000 X99.523 Y101.372
G1 F1200 X99.883 Y101.398 E13.31018
G1 X99.926 Y101.4 E13.31161
G1 X100.194 Y101.4 E13.32052
G1 X99.951 Y101.422 E13.32864
G1 X99.523 Y101.372 E13.34297
;MESH:Stringing_Test.stl
G0 F6000 X99.971 Y99.571
G0 X110 Y99.398
;TYPE:WALL-INNER
G1 F1200 X120.228 Y99.396 E13.68316
G1 X120.663 Y99.326 E13.69781
G1 X121.026 Y99.213 E13.71046
G1 X121.307 Y99.086 E13.72071
G1 X121.613 Y98.906 E13.73252
G1 X121.892 Y98.701 E13.74404
G1 X122.208 Y98.375 E13.75914
G1 X122.425 Y98.093 E13.77097
G1 X122.598 Y97.783 E13.78278
G1 X122.709 Y97.532 E13.79191
G1 X122.803 Y97.233 E13.80233
G1 X122.868 Y96.938 E13.81238
G1 X122.901 Y96.448 E13.82871
G1 X122.841 Y95.878 E13.84778
G1 X122.728 Y95.517 E13.86036
G1 X122.57 Y95.15 E13.87365
G1 X122.414 Y94.897 E13.88353
G1 X122.254 Y94.68 E13.8925
G1 X121.964 Y94.357 E13.90694
G1 X121.62 Y94.088 E13.92146
G1 X121.233 Y93.867 E13.93628
G1 X120.81 Y93.711 E13.95128
G1 X120.404 Y93.627 E13.96507
G1 X120.153 Y93.604 E13.97345
G1 X99.888 Y93.601 E14.64747
G1 X99.596 Y93.627 E14.65722
G1 X99.172 Y93.714 E14.67162
G1 X98.777 Y93.871 E14.68575
G1 X98.389 Y94.087 E14.70052
G1 X98.002 Y94.387 E14.71681
G1 X97.707 Y94.714 E14.73146
G1 X97.453 Y95.094 E14.74666
G1 X97.239 Y95.581 E14.76435
G1 X97.128 Y96.043 E14.78016
G1 X97.101 Y96.463 E14.79415
G1 X97.13 Y96.921 E14.80942
G1 X97.189 Y97.238 E14.82014
G1 X97.33 Y97.63 E14.834
G1 X97.475 Y97.927 E14.84499
G1 X97.657 Y98.205 E14.85604
G1 X97.892 Y98.505 E14.86872
G1 X98.276 Y98.83 E14.88545
G1 X98.537 Y99 E14.89581
G1 X98.815 Y99.152 E14.90635
G1 X99.255 Y99.302 E14.92181
G1 X99.612 Y99.372 E14.93391
G1 X99.987 Y99.4 E14.94642
G1 X110 Y99.398 E15.27945
G0 F6000 X110 Y99.798
;TYPE:WALL-OUTER
G1 F1200 X120.26 Y99.796 E15.6207
G1 X120.754 Y99.716 E15.63734
G1 X121.168 Y99.588 E15.65176
G1 X121.491 Y99.442 E15.66355
G1 X121.833 Y99.24 E15.67676
G1 X122.156 Y99.004 E15.69006
G1 X122.512 Y98.637 E15.70707
G1 X122.76 Y98.313 E15.72064
G1 X122.956 Y97.962 E15.73401
G1 X123.084 Y97.673 E15.74452
G1 X123.19 Y97.336 E15.75627
G1 X123.265 Y96.995 E15.76788
G1 X123.303 Y96.44 E15.78639
G1 X123.25 Y95.936 E15.80324
G1 X123.19 Y95.655 E15.8128
G1 X123.104 Y95.378 E15.82245
G1 X122.926 Y94.965 E15.8374
G1 X122.746 Y94.673 E15.84881
G1 X122.564 Y94.427 E15.85899
G1 X122.238 Y94.063 E15.87524
G1 X121.844 Y93.755 E15.89188
G1 X121.404 Y93.504 E15.90873
G1 X120.92 Y93.325 E15.92589
